X: 1
T:Haste to the Wedding
C:Traditional
N:Transcribed by Alan Ng
S:as played by Alan Ng in Madison, Wisconsin
Z:transcribed by Alan Ng agng@students.wisc.edu id:ng-jigs-20 Oct. 28, 1998
R:jig
M:6/8
K:D
E:9
A|AFA Agf|ede fdB|AFA AGF|GFG EFG|\
AFA Agf|ede fdB|ABA faf|edd d2:|*
E:10
|:f|afa afa|bgb bgb|afa agf|gfg efg|\
a3 ~f3|ede fdB|ABA faf|edd d2:|**
